public/images/expeditions/tents.svg

<?xml version="1.0" encoding="utf-8"?>
<!DOCTYPE svg PUBLIC "-//W3C//DTD SVG 20010904//EN" "http://www.w3.org/TR/2001/REC-SVG-20010904/DTD/svg10.dtd">
<svg version="1.0" xmlns="http://www.w3.org/2000/svg" width="2000px" height="1276px" viewBox="0 0 2000 1276" preserveAspectRatio="xMidYMid meet">
 <g fill="#000000">
  <path d="M0 1062.9 l0 -213.2 34.3 0.6 c18.8 0.4 36.9 1.1 40.2 1.7 3.3 0.5 11.2 1.4 17.5 1.9 10.9 0.9 27 4.6 33 7.6 1.4 0.7 7 2.5 12.5 4 19.3 5.3 36.1 10.4 44.5 13.5 4.7 1.7 11.2 4 14.4 5 7.8 2.5 42.2 19.7 51.1 25.5 11.4 7.5 22.5 12.5 30.1 13.6 3.8 0.6 8.6 1.7 10.7 2.5 2.7 1 8.1 1.4 19.2 1.4 17.4 0 20 -0.7 32.1 -8.1 13.6 -8.3 24.4 -12.7 38.4 -15.5 35.4 -7 65.6 -7.3 92 -0.8 8.1 2 20.5 7.9 37.5 17.9 12.3 7.2 14 8.6 31.2 25.8 l18.2 18.1 5.8 0.7 c10.2 1.2 23 3.7 25.3 4.9 1.3 0.7 5.1 3.8 8.5 7 5.7 5.3 6.8 5.9 12 6.5 5.2 0.7 6.4 1.4 11.5 6 l5.7 5.2 12.9 0.5 c8.9 0.4 14.2 1 16.9 2.2 2.6 1.1 8.1 6 16 14.1 l12.1 12.5 6.5 0 c4.9 0 7.5 0.6 11.1 2.5 2.6 1.4 5.5 2.5 6.5 2.5 1 0 3.3 0.9 5.1 2 1.8 1.1 4 2 4.8 2 0.9 0 5.7 1.8 10.8 4.1 7.4 3.3 10.5 5.5 16.7 11.5 4.2 4.1 8.2 7.4 8.8 7.4 0.5 0 3.2 1.9 5.9 4.3 5.9 5.3 17.1 11.7 20.4 11.7 1.5 0 3.9 1.6 6.3 4.1 2.2 2.2 5.4 4.9 7.2 6 4.6 2.9 16.4 5.9 23 5.9 4.1 0 6.7 0.6 8.8 2 2.6 1.7 4.7 2 15.8 2 10.3 0 13.4 0.3 16 1.8 2.6 1.4 7.2 1.8 26.2 2.5 30.7 1 42.7 1.1 50.7 0.2 5.9 -0.6 7.2 -0.5 10.4 1.4 2.8 1.7 5.3 2.2 11.8 2.2 4.4 0.1 11 0.2 14.6 0.2 9 0.2 13 -0.8 17.3 -4.4 3.3 -2.7 3.7 -3.6 3.7 -7.6 0 -4.4 0.4 -5 8.7 -13.7 14.8 -15.4 19.8 -18.3 26.9 -15.6 1.5 0.6 8.7 7.1 15.9 14.5 7.7 7.8 14 13.6 15.5 13.9 1.4 0.3 6.1 0.7 10.5 0.9 l8 0.4 6 -5.6 c3.4 -3.1 8.8 -6.9 12 -8.5 3.4 -1.6 8.3 -5.3 11.3 -8.3 5.6 -5.7 8.5 -7.3 13.4 -7.3 4 0 11 4.1 13.9 8.1 1.5 2.2 5.2 4.6 11.5 7.6 8.4 4 10 5.2 18.4 14.3 5.1 5.5 9.8 10 10.6 10 0.8 0 4.5 -4.2 8.4 -9.2 9.7 -12.9 11.9 -15.3 16.5 -17.6 2.2 -1.1 6 -4.1 8.5 -6.6 5 -5.2 12.7 -8.6 19.3 -8.6 5 0 13.2 3.7 16.6 7.4 3 3.2 4.1 3.3 7.2 0 7.4 -7.8 14.1 -8.1 24.3 -0.8 3.3 2.4 9.3 6.5 13.1 9 3.9 2.6 9.1 6.6 11.7 9 2.6 2.4 5.7 4.4 6.9 4.4 3.1 0 12.3 -6.2 20 -13.7 7.6 -7.2 16.5 -11.9 24.5 -12.9 4.8 -0.6 6.2 -0.3 12.8 2.9 4 1.9 8.9 3.8 10.7 4.2 1.9 0.4 4.7 1.8 6.2 3.1 1.6 1.3 3.3 2.4 3.9 2.4 1.9 0 10.1 -5.2 14.8 -9.3 5.6 -5 9.7 -6.7 15.5 -6.7 5.8 0 10.4 2.4 18.1 9.2 6.7 6 14.3 10.8 17.1 10.8 1 0 3.9 -2 6.3 -4.5 7.6 -7.8 10.5 -7.6 21 1.1 3 2.5 9.3 7.2 14 10.4 5.7 3.9 11.3 9.1 17 15.6 11.6 13.3 11.7 13.4 14.3 13.4 3.2 0 6.9 -4.3 10.6 -12.1 5.3 -11.2 14.4 -22.2 22.1 -26.7 2.5 -1.4 6.9 -4.8 9.7 -7.4 5.8 -5.4 12.9 -9 21.3 -10.7 10.1 -2.1 23.6 2 34.6 10.6 2.7 2.1 7.4 5.1 10.5 6.6 3.2 1.6 7.5 4.8 10 7.6 12.3 13.6 20.6 23.7 22.9 28 3.2 5.7 13.1 20.1 17.3 25 1.6 1.9 3.7 5.2 4.7 7.5 0.9 2.3 2.4 4.6 3.1 5.3 0.8 0.6 5 1.4 9.4 1.8 4.4 0.4 9.8 1.5 12 2.6 3.5 1.6 6.3 1.8 20.5 1.7 11.5 0 17.3 -0.5 19 -1.4 1.4 -0.7 5.8 -4 9.9 -7.2 4 -3.3 9.1 -6.5 11.2 -7.1 2.4 -0.7 4.9 -2.6 7 -5.3 1.8 -2.2 5.9 -6 9 -8.3 9.1 -6.7 22.3 -18.2 32.8 -28.5 5.9 -5.9 12.7 -11.5 17.6 -14.4 13.8 -8.4 15.1 -8.9 21.8 -8.1 3.7 0.4 7.8 0.2 10.8 -0.6 4.8 -1.2 5.2 -1.2 11.2 1.9 3.4 1.8 7.4 3.2 8.9 3.2 4.5 0 9.9 3.1 17.4 10 9.1 8.4 17 15 21 17.5 1.8 1.1 6 5.2 9.4 9 3.4 3.9 8.7 9.3 11.6 12.1 3 2.7 5.4 5.8 5.4 6.7 0 2.2 14.4 17.3 18.4 19.4 1.7 0.9 7.1 5.3 12.1 9.8 5.1 4.6 10.1 8.6 11.3 8.9 l2.2 0.7 0 53 0 52.9 -1000 0 -1000 0 0 -213.1z"/>
 </g>
</svg>

<?xml version="1.0" encoding="UTF-8" standalone="no"?>
<!DOCTYPE svg PUBLIC "-//W3C//DTD SVG 1.1//EN" "http://www.w3.org/Graphics/SVG/1.1/DTD/svg11.dtd">
<svg width="100%" height="100%" viewBox="0 0 2000 1276" version="1.1" xmlns="http://www.w3.org/2000/svg" xmlns:xlink="http://www.w3.org/1999/xlink" xml:space="preserve" xmlns:serif="http://www.serif.com/" style="fill-rule:evenodd;clip-rule:evenodd;stroke-linejoin:round;stroke-miterlimit:2;">
    <g transform="matrix(1,0,0,1,0,-424.85)">
        <path d="M-30,1774.86L-30,849.7L34.3,850.3C53.1,850.7 71.2,851.4 74.5,852C77.8,852.5 85.7,853.4 92,853.9C102.9,854.8 119,858.5 125,861.5C126.4,862.2 132,864 137.5,865.5C156.8,870.8 173.6,875.9 182,879C186.7,880.7 193.2,883 196.4,884C204.2,886.5 238.6,903.7 247.5,909.5C258.9,917 270,922 277.6,923.1C281.4,923.7 286.2,924.8 288.3,925.6C291,926.6 296.4,927 307.5,927C324.9,927 327.5,926.3 339.6,918.9C353.2,910.6 364,906.2 378,903.4C413.4,896.4 443.6,896.1 470,902.6C478.1,904.6 490.5,910.5 507.5,920.5C519.8,927.7 521.5,929.1 538.7,946.3L556.9,964.4L562.7,965.1C572.9,966.3 585.7,968.8 588,970C589.3,970.7 593.1,973.8 596.5,977C602.2,982.3 603.3,982.9 608.5,983.5C613.7,984.2 614.9,984.9 620,989.5L625.7,994.7L638.6,995.2C647.5,995.6 652.8,996.2 655.5,997.4C658.1,998.5 663.6,1003.4 671.5,1011.5L683.6,1024L690.1,1024C695,1024 697.6,1024.6 701.2,1026.5C703.8,1027.9 706.7,1029 707.7,1029C708.7,1029 711,1029.9 712.8,1031C714.6,1032.1 716.8,1033 717.6,1033C718.5,1033 723.3,1034.8 728.4,1037.1C735.8,1040.4 738.9,1042.6 745.1,1048.6C749.3,1052.7 753.3,1056 753.9,1056C754.4,1056 757.1,1057.9 759.8,1060.3C765.7,1065.6 776.9,1072 780.2,1072C781.7,1072 784.1,1073.6 786.5,1076.1C788.7,1078.3 791.9,1081 793.7,1082.1C798.3,1085 810.1,1088 816.7,1088C820.8,1088 823.4,1088.6 825.5,1090C828.1,1091.7 830.2,1092 841.3,1092C851.6,1092 854.7,1092.3 857.3,1093.8C859.9,1095.2 864.5,1095.6 883.5,1096.3C914.2,1097.3 926.2,1097.4 934.2,1096.5C940.1,1095.9 941.4,1096 944.6,1097.9C947.4,1099.6 949.9,1100.1 956.4,1100.1C960.8,1100.2 967.4,1100.3 971,1100.3C980,1100.5 984,1099.5 988.3,1095.9C991.6,1093.2 992,1092.3 992,1088.3C992,1083.9 992.4,1083.3 1000.7,1074.6C1015.5,1059.2 1020.5,1056.3 1027.6,1059C1029.1,1059.6 1036.3,1066.1 1043.5,1073.5C1051.2,1081.3 1057.5,1087.1 1059,1087.4C1060.4,1087.7 1065.1,1088.1 1069.5,1088.3L1077.5,1088.7L1083.5,1083.1C1086.9,1080 1092.3,1076.2 1095.5,1074.6C1098.9,1073 1103.8,1069.3 1106.8,1066.3C1112.4,1060.6 1115.3,1059 1120.2,1059C1124.2,1059 1131.2,1063.1 1134.1,1067.1C1135.6,1069.3 1139.3,1071.7 1145.6,1074.7C1154,1078.7 1155.6,1079.9 1164,1089C1169.1,1094.5 1173.8,1099 1174.6,1099C1175.4,1099 1179.1,1094.8 1183,1089.8C1192.7,1076.9 1194.9,1074.5 1199.5,1072.2C1201.7,1071.1 1205.5,1068.1 1208,1065.6C1213,1060.4 1220.7,1057 1227.3,1057C1232.3,1057 1240.5,1060.7 1243.9,1064.4C1246.9,1067.6 1248,1067.7 1251.1,1064.4C1258.5,1056.6 1265.2,1056.3 1275.4,1063.6C1278.7,1066 1284.7,1070.1 1288.5,1072.6C1292.4,1075.2 1297.6,1079.2 1300.2,1081.6C1302.8,1084 1305.9,1086 1307.1,1086C1310.2,1086 1319.4,1079.8 1327.1,1072.3C1334.7,1065.1 1343.6,1060.4 1351.6,1059.4C1356.4,1058.8 1357.8,1059.1 1364.4,1062.3C1368.4,1064.2 1373.3,1066.1 1375.1,1066.5C1377,1066.9 1379.8,1068.3 1381.3,1069.6C1382.9,1070.9 1384.6,1072 1385.2,1072C1387.1,1072 1395.3,1066.8 1400,1062.7C1405.6,1057.7 1409.7,1056 1415.5,1056C1421.3,1056 1425.9,1058.4 1433.6,1065.2C1440.3,1071.2 1447.9,1076 1450.7,1076C1451.7,1076 1454.6,1074 1457,1071.5C1464.6,1063.7 1467.5,1063.9 1478,1072.6C1481,1075.1 1487.3,1079.8 1492,1083C1497.7,1086.9 1503.3,1092.1 1509,1098.6C1520.6,1111.9 1520.7,1112 1523.3,1112C1526.5,1112 1530.2,1107.7 1533.9,1099.9C1539.2,1088.7 1548.3,1077.7 1556,1073.2C1558.5,1071.8 1562.9,1068.4 1565.7,1065.8C1571.5,1060.4 1578.6,1056.8 1587,1055.1C1597.1,1053 1610.6,1057.1 1621.6,1065.7C1624.3,1067.8 1629,1070.8 1632.1,1072.3C1635.3,1073.9 1639.6,1077.1 1642.1,1079.9C1654.4,1093.5 1662.7,1103.6 1665,1107.9C1668.2,1113.6 1678.1,1128 1682.3,1132.9C1683.9,1134.8 1686,1138.1 1687,1140.4C1687.9,1142.7 1689.4,1145 1690.1,1145.7C1690.9,1146.3 1695.1,1147.1 1699.5,1147.5C1703.9,1147.9 1709.3,1149 1711.5,1150.1C1715,1151.7 1717.8,1151.9 1732,1151.8C1743.5,1151.8 1749.3,1151.3 1751,1150.4C1752.4,1149.7 1756.8,1146.4 1760.9,1143.2C1764.9,1139.9 1770,1136.7 1772.1,1136.1C1774.5,1135.4 1777,1133.5 1779.1,1130.8C1780.9,1128.6 1785,1124.8 1788.1,1122.5C1797.2,1115.8 1810.4,1104.3 1820.9,1094C1826.8,1088.1 1833.6,1082.5 1838.5,1079.6C1852.3,1071.2 1853.6,1070.7 1860.3,1071.5C1864,1071.9 1868.1,1071.7 1871.1,1070.9C1875.9,1069.7 1876.3,1069.7 1882.3,1072.8C1885.7,1074.6 1889.7,1076 1891.2,1076C1895.7,1076 1901.1,1079.1 1908.6,1086C1917.7,1094.4 1925.6,1101 1929.6,1103.5C1931.4,1104.6 1935.6,1108.7 1939,1112.5C1942.4,1116.4 1947.7,1121.8 1950.6,1124.6C1953.6,1127.3 1956,1130.4 1956,1131.3C1956,1133.5 1970.4,1148.6 1974.4,1150.7C1976.1,1151.6 1981.5,1156 1986.5,1160.5C1991.6,1165.1 2026.6,1169.1 2027.8,1169.4L2030,1170.1L2030,1774.86L-30,1774.86Z" style="fill-rule:nonzero;"/>
    </g>
</svg>
